X: 020607
T: Blackwater
M: 4/4
L: 1/8
S: Luke O'Malley Volume 1
Z: B.Black
R: reel
K: G
DGBG A2BA | GEED cEE2 | DGBG AcBA | GEDB DEGA |
BcBG AcBA | (3GFE cE dEcE | DEGB AGBA |\
GEED EG G2 :|
G2 (3Bcd efge | dBB2 dBAB | GA (3Bcd edge |\
dBAG EG G2 |
GA (3Bcd edge | dBB2 dega | (3bag ag efge |\
dBAG EG G2 :|
